X:421
T:Royal Quick Step,The. RH.421
T:Boys & Girls Come Out To Play,aka. RH.421
R:jig
S:Rev.R.Harrison’s MS,c1815,Cumbria
N:see #457
O:England
A:Temple Sowerby,Cumbria
Z:vmp.Simon Wilson. Review PJH, 2008.
M:6/8
L:1/8
Q:3/8=110
K:G
B/c/|d2g B2c|d2B G2G|A2B cBA|d2B G2B/c/|!
d2g B2c|d2B G2G|A2B cBA|G3 G2:|!
|:d|gbg fef|gfe def|gag fef|(g3 g2)d|!
g2g fef|gfe def|gag fef|(g3 g2)|]

